X:1
T:Title
%%score { ( 1 3 ) | ( 2 4 ) }
L:1/8
Q:1/4=100
M:4/4
K:Ab
V:1 treble nm="Grand Piano"
V:3 treble 
V:2 bass 
V:4 bass 
V:1
 [CE][CE][DF][DG] [CA]2 E2 | BBGE c4 | ddcB c2 [EA]2 | z4 B4 | [CE][CE][DF][DG] [CA]2 E2 | %5
w: D.~B.~Towner * * * * *|||||
 BBGE c4 | ddc[EB] [Ee][Ec][EA][Fd] | [Ec]2 [DEB]2 [CEA]4 | [GB]6 z2 | [Ec]4 [EA]4 | %10
w: |||||
 F3 [EG] [EA]2 B2 | c6 z2 | ddc[EB] [Ee][Ec][EA][Fd] | [Ec]2 [DEB]2 [CEA]4 | z4 z2 [GB]2 | %15
w: |||||
 [EAc]2 [EAc]2 [CEA]2 [CEA]2 | [DF][DF][DF][DEG] [CEA][CEA][EGB][EGB] | [EAc]2 [EAc]2 c2 z2 | %18
w: |||
 ddc[EB] [Ee][Ec][EA][Fd] | [Ec]2 [DEB]2 [CEA]4 |] %20
w: ||
V:2
 [A,,A,][A,,A,][A,,F,][A,,F,] [A,,E,]2 [C,A,]2 | [E,G,E][E,G,E][E,B,E][E,G,] [A,E]4 | %2
 [E,B,E][E,B,E][E,A,E][E,G,E] [A,E]2 [C,A,]2 | z4 E2 z2 | %4
 [A,,A,][A,,A,][A,,F,][A,,F,] [A,,E,]2 [C,A,]2 | [E,G,E][E,G,E][E,B,E][E,G,] [A,E]4 | %6
 [E,G,E][E,G,E][E,G,E][D,G,] [C,A,][A,,A,][C,A,][D,A,] | [E,A,]2 E,2 A,,4 | E,2 E,2 E,E,E,E, | %9
 [A,,A,]2 A,,2 A,, A,,3 | [D,A,D]3 [D,A,] [C,A,]2 [E,G,]2 | [A,E]6 z2 | %12
 [E,G,E][E,G,E][E,G,E][D,G,] [C,A,][A,,A,][C,A,][D,A,] | [E,A,]2 E,2 A,,4 | E,B,E,B, E,G,B,G, | %15
 A,A,,A,A,, C,E,A,A,, | D,A,D,B, A,A,,E,B, | A,A,,C,E,[K:treble] [A,EA]2 z2 | %18
 [E,G,E][E,G,E][E,G,E][D,G,] [C,A,][A,,A,][C,A,][D,G,] | [E,A,]2 E,2 A,,4 |] %20
V:3
 x8 | x8 | x8 | [DF][DF][DG][CA] z2 D2 | x8 | x8 | x8 | x8 | E2 E2 E[DGB][B,EG][G,E] | %9
 z2 A,2 C C3 | x8 | x8 | x8 | x8 | [EGB]2 [EGB]2 BBEE | x8 | x8 | x8 | x8 | x8 |] %20
V:4
 x8 | x8 | x8 | [D,A,][D,F,][B,,E,][A,,E,] [E,G,]4 | x8 | x8 | x8 | x8 | x8 | x8 | x8 | x8 | x8 | %13
 x8 | x8 | x8 | x8 | x4[K:treble] x4 | x8 | x8 |] %20

